src/assets/duotone/VideoRemove.svg

<?xml version="1.0" encoding="UTF-8"?>
<svg width="24" height="24" viewBox="0 0 24 24" xmlns="http://www.w3.org/2000/svg">
 <path d="m21.98 15.67c-0.04-0.06-0.09-0.12-0.14-0.17-0.81-0.93-2.01-1.5-3.34-1.5-1.26 0-2.41 0.52-3.23 1.36-0.79 0.81-1.27 1.92-1.27 3.14 0 0.84 0.24 1.64 0.65 2.32 0.23 0.38 0.52 0.73 0.86 1.02 0.05 0.05 0.1 0.09 0.16 0.14h0.01c0.76 0.64 1.74 1.02 2.82 1.02 1.64 0 3.07-0.88 3.85-2.18 0.23-0.39 0.41-0.82 0.52-1.27 0.09-0.34 0.13-0.69 0.13-1.05 0-1.07-0.38-2.06-1.02-2.83zm-1.75 4.54c-0.15 0.15-0.34 0.22-0.53 0.22s-0.38-0.07-0.53-0.22l-0.66-0.66-0.69 0.69c-0.15 0.15-0.34 0.22-0.53 0.22s-0.38-0.07-0.53-0.22c-0.29-0.29-0.29-0.77 0-1.06l0.69-0.69-0.66-0.66c-0.29-0.29-0.29-0.77 0-1.06s0.77-0.29 1.06 0l0.66 0.66 0.63-0.63c0.29-0.29 0.77-0.29 1.06 0s0.29 0.77 0 1.06l-0.63 0.63 0.66 0.66c0.3 0.29 0.3 0.76 0 1.06z"/>
 <path d="m22 7.81v7.89c0-0.01-0.01-0.02-0.02-0.03-0.04-0.06-0.09-0.12-0.14-0.17-0.01-0.01-0.02-0.03-0.03-0.04-0.81-0.9-2-1.46-3.31-1.46-1.26 0-2.41 0.52-3.23 1.36-0.79 0.81-1.27 1.92-1.27 3.14 0 0.84 0.24 1.64 0.65 2.32 0.22 0.37 0.5 0.71 0.82 0.99 0.02 0.01 0.03 0.02 0.04 0.03 0.05 0.05 0.1 0.09 0.16 0.14h0.01c0.01 0.01 0.02 0.02 0.03 0.02h-7.9c-3.64 0-5.81-2.17-5.81-5.81v-8.38c0-0.51 0.04-1 0.13-1.45 0.51-2.75 2.54-4.35 5.64-4.36h8.46c3.1 0.01 5.13 1.61 5.64 4.36 0.09 0.45 0.13 0.94001 0.13 1.45z" opacity=".4"/>
 <path d="m22 7.81v0.04999h-20v-0.04999c0-0.51 0.04-1 0.13-1.45h5.64v-4.36h1.5v4.36h5.46v-4.36h1.5v4.36h5.64c0.09 0.45 0.13 0.94001 0.13 1.45z"/>
</svg>

<svg width="24" height="24" viewBox="0 0 24 24"  xmlns="http://www.w3.org/2000/svg">
<path d="M21.98 15.67C21.94 15.61 21.89 15.55 21.84 15.5C21.03 14.57 19.83 14 18.5 14C17.24 14 16.09 14.52 15.27 15.36C14.48 16.17 14 17.28 14 18.5C14 19.34 14.24 20.14 14.65 20.82C14.88 21.2 15.17 21.55 15.51 21.84C15.56 21.89 15.61 21.93 15.67 21.98C15.67 21.98 15.67 21.98 15.68 21.98C16.44 22.62 17.42 23 18.5 23C20.14 23 21.57 22.12 22.35 20.82C22.58 20.43 22.76 20 22.87 19.55C22.96 19.21 23 18.86 23 18.5C23 17.43 22.62 16.44 21.98 15.67ZM20.23 20.21C20.08 20.36 19.89 20.43 19.7 20.43C19.51 20.43 19.32 20.36 19.17 20.21L18.51 19.55L17.82 20.24C17.67 20.39 17.48 20.46 17.29 20.46C17.1 20.46 16.91 20.39 16.76 20.24C16.47 19.95 16.47 19.47 16.76 19.18L17.45 18.49L16.79 17.83C16.5 17.54 16.5 17.06 16.79 16.77C17.08 16.48 17.56 16.48 17.85 16.77L18.51 17.43L19.14 16.8C19.43 16.51 19.91 16.51 20.2 16.8C20.49 17.09 20.49 17.57 20.2 17.86L19.57 18.49L20.23 19.15C20.53 19.44 20.53 19.91 20.23 20.21Z" />
<path opacity="0.4" d="M22 7.81V15.7C22 15.69 21.99 15.68 21.98 15.67C21.94 15.61 21.89 15.55 21.84 15.5C21.83 15.49 21.82 15.47 21.81 15.46C21 14.56 19.81 14 18.5 14C17.24 14 16.09 14.52 15.27 15.36C14.48 16.17 14 17.28 14 18.5C14 19.34 14.24 20.14 14.65 20.82C14.87 21.19 15.15 21.53 15.47 21.81C15.49 21.82 15.5 21.83 15.51 21.84C15.56 21.89 15.61 21.93 15.67 21.98C15.67 21.98 15.67 21.98 15.68 21.98C15.69 21.99 15.7 22 15.71 22H7.81C4.17 22 2 19.83 2 16.19V7.81C2 7.3 2.04 6.80999 2.13 6.35999C2.64 3.60999 4.67 2.01 7.77 2H16.23C19.33 2.01 21.36 3.60999 21.87 6.35999C21.96 6.80999 22 7.3 22 7.81Z" />
<path d="M22 7.81V7.85999H2V7.81C2 7.3 2.04 6.80999 2.13 6.35999H7.77V2H9.27V6.35999H14.73V2H16.23V6.35999H21.87C21.96 6.80999 22 7.3 22 7.81Z" />
</svg>
